icon_installer/data/icons/scalable/actions/show-loaf-symbolic.svg

<?xml version="1.0" encoding="UTF-8"?>
<svg height="16px" viewBox="0 0 16 16" width="16px" xmlns="http://www.w3.org/2000/svg">
    <path d="m 8 3 c -0.871094 0 -1.734375 0.160156 -2.550781 0.449219 c -0.847657 0.328125 -1.007813 1.203125 -0.460938 1.851562 c 0 0 2.011719 1.445313 2.011719 4.199219 c 0 0.277344 0.222656 0.5 0.5 0.5 s 0.5 -0.222656 0.5 -0.5 c 0 -2 -0.917969 -3.433594 -1.625 -4.242188 c 0.15625 -0.050781 0.484375 -0.132812 0.644531 -0.167968 c 1.230469 1.339844 1.925781 2.378906 1.980469 4.410156 c 0 0.277344 0.222656 0.5 0.5 0.5 s 0.5 -0.222656 0.5 -0.5 c 0 -2.222656 -1.136719 -3.753906 -1.855469 -4.496094 c 0.371094 -0.050781 0.792969 0.058594 0.792969 0.058594 s 2.0625 1.683594 2.0625 4.4375 c 0 0.277344 0.222656 0.5 0.5 0.5 s 0.5 -0.222656 0.5 -0.5 c 0 -1.636719 -0.867188 -3.257812 -1.476562 -4.105469 c 1.695312 0.925781 3.304687 2.945313 3.480468 4.703125 c 0.019532 0.214844 -0.144531 1.101563 -0.632812 1.75 c -0.488282 0.648438 -1.183594 1.152344 -2.371094 1.152344 h -6 c -1.1875 0 -1.882812 -0.503906 -2.371094 -1.152344 c -0.488281 -0.648437 -0.652344 -1.535156 -0.632812 -1.75 c 0.121094 -1.210937 0.765625 -2.382812 1.738281 -3.304687 c 0.398437 -0.378907 0.417969 -1.007813 0.039063 -1.410157 c -0.378907 -0.402343 -1.011719 -0.417968 -1.410157 -0.039062 c -1.265625 1.195312 -2.183593 2.78125 -2.35937475 4.558594 c -0.09765625 0.980468 0.23828175 2.09375 1.02734375 3.148437 c 0.789062 1.050781 2.15625 1.949219 3.96875 1.949219 h 6 c 1.8125 0 3.179688 -0.898438 3.96875 -1.949219 c 0.789062 -1.054687 1.125 -2.167969 1.027344 -3.148437 c -0.386719 -3.90625 -4.148438 -6.902344 -7.996094 -6.902344 z m 0 0" fill="#222222"/>
</svg>

<svg xmlns="http://www.w3.org/2000/svg" width="16" height="16"><path fill="#222" d="M8 3c-.871 0-1.734.16-2.55.45-.848.327-1.009 1.202-.462 1.85C4.988 5.3 7 6.747 7 9.5a.499.499 0 1 0 1 0c0-2-.918-3.434-1.625-4.242.156-.051.484-.133.645-.168C8.25 6.43 8.945 7.469 9 9.5a.499.499 0 1 0 1 0c0-2.223-1.137-3.754-1.855-4.496.37-.05.793.059.793.059S11 6.745 11 9.5a.499.499 0 1 0 1 0c0-1.637-.867-3.258-1.477-4.105 1.696.925 3.305 2.945 3.48 4.703.02.214-.144 1.101-.632 1.75C12.883 12.496 12.188 13 11 13H5c-1.187 0-1.883-.504-2.371-1.152-.488-.649-.652-1.536-.633-1.75.121-1.211.766-2.383 1.738-3.305a.999.999 0 0 0 .04-1.41.995.995 0 0 0-1.41-.04C1.097 6.54.18 8.126.003 9.904c-.098.98.238 2.093 1.027 3.148A4.91 4.91 0 0 0 5 15h6a4.91 4.91 0 0 0 3.969-1.95c.789-1.054 1.125-2.167 1.027-3.148C15.61 5.996 11.848 3 8 3zm0 0"/></svg>
